icons/.icons/Papirus-Light/22x22/panel/update-high.svg

<svg xmlns="http://www.w3.org/2000/svg" width="22" height="22" version="1.1">
 <defs>
  <style id="current-color-scheme" type="text/css">
   .ColorScheme-Text { color:#444444; } .ColorScheme-Highlight { color:#4285f4; } .ColorScheme-NeutralText { color:#ff9800; } .ColorScheme-PositiveText { color:#4caf50; } .ColorScheme-NegativeText { color:#f44336; }
  </style>
 </defs>
 <circle style="fill:currentColor" class="ColorScheme-NegativeText" cx="20" cy="18" r="2"/>
 <path style="fill:currentColor" class="ColorScheme-Text" d="m 11,3 c -4.4182999,0 -7.9999999,3.5817 -7.9999999,8 0,4.418 3.5817,8 7.9999999,8 4.418,0 8,-3.582 8,-8 0,-4.4183 -3.582,-8 -8,-8 z m 0,2 c 1.495771,0 2.989091,0.560161 4.148438,1.671875 -0.370703,0.143824 -0.713602,0.377967 -0.976563,0.75 L 13.710938,8.076172 C 12.142097,6.621879 9.6974741,6.646276 8.1718751,8.171872 7.3909654,8.952782 7.0040094,9.976415 7.0039063,10.999997 h 0.296875 a 0.69923716,0.5746971 1.1588047e-6 0 1 0.6054688,0.861328 l -0.6503906,0.925781 -0.6523438,0.925782 a 0.69923716,0.5746971 1.1588047e-6 0 1 -1.2089844,0 L 4.7441407,12.787109 4.0937501,11.861328 a 0.69923716,0.5746971 1.1588047e-6 0 1 0.3984375,-0.835937 0.69923716,0.5746971 1.1588047e-6 0 1 0.2050781,-0.02539 H 5.0019532 C 5.0020238,9.464516 5.5863638,7.929263 6.7578126,6.757814 7.9293913,5.586235 9.4644691,5.000001 11,5 Z m 4.962891,3.001953 a 0.69923716,0.5746971 1.1588047e-6 0 1 0.642578,0.285156 l 0.65039,0.925782 0.650391,0.925781 a 0.69923716,0.5746971 1.1588047e-6 0 1 -0.398438,0.835937 0.69923716,0.5746971 1.1588047e-6 0 1 -0.205078,0.02539 h -0.304687 c -7.1e-5,1.535485 -0.584412,3.070735 -1.755859,4.242188 -1.171579,1.171576 -2.706657,1.757812 -4.242188,1.757812 -1.4949089,0 -2.9874228,-0.559491 -4.1464843,-1.669922 0.363732,-0.140945 0.7082551,-0.373476 0.9746094,-0.75 v -0.002 L 8.2890626,13.92378 c 1.5688395,1.454293 4.0134634,1.429896 5.5390624,-0.0957 0.78091,-0.780866 1.167866,-1.804498 1.167969,-2.828081 H 14.699219 A 0.69923716,0.5746971 1.1588047e-6 0 1 14.09375,10.138672 l 0.650391,-0.925781 0.652343,-0.925782 a 0.69923716,0.5746971 1.1588047e-6 0 1 0.566407,-0.285156 z"/>
</svg>

<svg xmlns="http://www.w3.org/2000/svg" width="22" height="22" version="1.1">
 <defs>
  <style id="current-color-scheme" type="text/css">
   .ColorScheme-Text { color:#444444; } .ColorScheme-Highlight { color:#4285f4; }
  </style>
 </defs>
 <path style="fill:currentColor" class="ColorScheme-Text" d="M 11 3 C 6.5817 3 3 6.5817 3 11 C 3 15.418 6.5817 19 11 19 C 15.418 19 19 15.418 19 11 C 19 6.5817 15.418 3 11 3 z M 11 5 C 12.495771 5 13.989091 5.5601607 15.148438 6.671875 C 14.777735 6.8156992 14.434836 7.0498419 14.171875 7.421875 L 13.710938 8.0761719 C 12.142097 6.6218791 9.6974738 6.6462762 8.171875 8.171875 C 7.3909653 8.9527847 7.0040093 9.9764175 7.0039062 11 L 7.3007812 11 A 0.69923716 0.5746971 1.1588047e-06 0 1 7.90625 11.861328 L 7.2558594 12.787109 L 6.6035156 13.712891 A 0.69923716 0.5746971 1.1588047e-06 0 1 5.3945312 13.712891 L 4.7441406 12.787109 L 4.09375 11.861328 A 0.69923716 0.5746971 1.1588047e-06 0 1 4.4921875 11.025391 A 0.69923716 0.5746971 1.1588047e-06 0 1 4.6972656 11 L 5.0019531 11 C 5.0020237 9.464515 5.5863637 7.9292613 6.7578125 6.7578125 C 7.9293912 5.5862339 9.464469 5 11 5 z M 15.962891 8.0019531 A 0.69923716 0.5746971 1.1588047e-06 0 1 16.605469 8.2871094 L 17.255859 9.2128906 L 17.90625 10.138672 A 0.69923716 0.5746971 1.1588047e-06 0 1 17.507812 10.974609 A 0.69923716 0.5746971 1.1588047e-06 0 1 17.302734 11 L 16.998047 11 C 16.997976 12.535485 16.413635 14.070735 15.242188 15.242188 C 14.070609 16.413764 12.535531 17 11 17 C 9.5050912 17 8.0125771 16.440509 6.8535156 15.330078 C 7.2172476 15.189133 7.5617707 14.956602 7.828125 14.580078 L 7.828125 14.578125 L 8.2890625 13.923828 C 9.8579016 15.378121 12.302526 15.353724 13.828125 13.828125 C 14.609035 13.047215 14.995991 12.023583 14.996094 11 L 14.699219 11 A 0.69923716 0.5746971 1.1588047e-06 0 1 14.09375 10.138672 L 14.744141 9.2128906 L 15.396484 8.2871094 A 0.69923716 0.5746971 1.1588047e-06 0 1 15.962891 8.0019531 z"/>
 <circle style="fill:currentColor" class="ColorScheme-Highlight" cx="20" cy="18" r="2"/>
</svg>
